X: 51
T:Behind the Haystack
T:Munster Buttermilk
R:jig
M:6/8
L:1/8
K:D
A| d2e fdB | d2e fdB | AFE EFE | AFE EFA |d2e fdB | d2e fdB | AFD D2B |
AFD D2 :|
A| B2B BAF| ABc d2B | AFE EFE | AFE EFA |B2B BAF | ABc d2B | AFD D2B | A
FD D2 :|
e| g3 f3 | ede fdB | AFE EFE | AFE EFA |gag fgf | ede fdB | AFD D2B | AF
D D2 :|
